X: 1
T: Dreaming
M: 4/4
L: 1/8
R: hornpipe
K: Ador
ABcB AFEF| ABcA cBAB| cBAF EFAB| cABB ABcB|
AFEF ABcA| cBcd cBdc| BABA FEFA:|
ABce aaaf| afec BABc| BAFE FABc| ABBA Bcea|
aaaf afec| BABc BAFE| FABc BAFA:|
